X: 10183
T: Dinny O'Brien's
R: reel
M: 4/4
K: Gmajor
|:dB|DGBG ABcA|defa gfdc|B3d cAFD|GBAF DEFD|
GDBD ABcA|defa gfdc|BGBd cAFD|AGGF G2:|
|:(3def|g3a gfdf|gdbg gfde|dcde fgaf|fd d2 dcAF|
G2 BG ABcA|defa gfdc|B3d cAFA|AGGF G2:|

